X: 34765
T: Road To Naul, The
R: jig
M: 6/8
K: Dmixolydian
|:DAD EFG|~A3 B/c/de|DAD FGA|~G3 GEc|
DAD EFG|~A3 B/c/de|~d3 dcA|1 GAc AGE:|2 GAc ~A3||
|:~d3 dcA|GAc ~A3|~d3 dcA|~G3 ~A3|
~d3 dcA|GAc ~A3|de=f edc|ABc AGE:|

